X:1
T:O Dieu, qui es ma forteresse
T:Pseaume 28 Ad te Domine clamabo
T:Cl. Goudimel 1580 (2nd corrected edition)
%%score [ 1 2 3 4 ]
L:1/8
Q:1/4=240
M:4/2
K:F
V:1 treble nm="Midi_1"
V:2 treble nm="Midi_1"
V:3 treble-8 nm="Midi_1"
V:4 bass nm="Midi_1"
V:1
 G8 A8 | F8 D4 D4 | E4 G8 F4 | G8 z8 | B8 B4 c4 |[M:4/2] d4 d4 c4 B4 x2 | A8 G8 x2 | z8 D8 | %8
w: O Dieu|qui es ma|for- te- res-|se,|C'est à toi|que mon cri s'~a-|dres- se:|Ne|
 G8 B8 | A4 G4 F4 F4 x2 | E8 D8 x2 | z8 G8 x4 | B8 A8 | G4 F4 G4 B8 | A4 B8 z8 | d8 B4 c4 | %16
w: Veuil- les|qu be- soi te|tai- re,|Au-|tre- ment|ie ne sçai que|fai- re,|Si- non à|
 G4 B4 x8 | A8 G8 | F8 z8 | B8 A4 G4 x4 | F4 G4 G4 F4 x12 | G16 |] %22
w: ceux me|com- pa-|rer|Qu'on veut au|se- pul- chre~en- ter-|rer.|
V:2
 D8 F8 | C8 B,4 A,4 | C4 D4 D8 | B,4 D4 D4 E4 | F4 F4 G4 E4 |[M:4/2] D2 E2 F6 E2 D2 C2 x2 | %6
w: O Dieu,|qui es ma|for- te- res-|se, C'est à toi|que mon cri s'a-|dres- * * * * *|
 D8 D4 G,4 x2 | D8 F8 | E4 E4 G4 F4- | F4 E8 D6 | CB, C4 D8 z4 | D4 _E4 E4 D8 | C4 F4 x8 | %13
w: * se: Ne|vueil- les|au be- soin te|* tai- *|* * * re,|Au- tre- ment ie|ne sçai|
 E4 D6 C2 D2 E2 x4 | F8 D4 F4 x4 | F4 E4 D2 C2 B,2 A,2 | G,4 G8 F4 | F8 D8 | z4 D4 D4 C4 | %19
w: que fai- * * *|* re: Si-|non à ceux * * *|* me com-|pa- rer|Qu'on veut au|
 D8 D4 D8 | C4 D8- D16 | x16 |] %22
w: se- pul- chre~en-|ter- rer. *||
V:3
 G8 c8 | A8 F4 F4 | G4 B4 A8 | G4 B4 B4 c4 | d4 d4 G2 F2 G2 A2 |[M:4/2][K:treble-8] B4 B4 A4 G6 | %6
w: O Dieu,|qui es ma|for- te- res-|se C'est à toi|que mon cri * * *|* s'a- dres- *|
 FE F4 G4 B4 B4 | B4 A2 G2 A2 B2 c4 | c4 d4 d4 x4 | c8 A8 x2 | z4 A4 B4 A4 x2 | G4 F4 c4 c4 x4 | %12
w: * * * se: Ne vueil-|les au * * * *|be- soin te|tai- re,|Au- tre- ment|ie ne sçai que|
 F6 G2 A2 B2 c4- | c4 A4 B8 x4 | c8 B4 d4 x4 | B4 c4 G2 A2 B2 c2 | d4"^(  )" _e4 B4 d4- | %17
w: fai- * * * *||* re, Si-|non à ceux * * *|* me com- pa-|
 d2 c2 c2 BA B8 | A4 A4 B4 A4 | G8 F4 B8 | A2 G2 A4 A4 G16 | x16 |] %22
w: |re Qu'on veut au|se- pul- chre~en-|* * * ter- rer.||
V:4
 G,8 F,8 | F,8 B,,4 D,4 | C,4 G,,4 D,8 | G,,4 G,,4 G,,4 C,4 | B,,4 B,,4 _E,4 C,4 | %5
w: O Dieu,|qui es ma|for- te- res-|se, C'est à toi|que mon cri s'a-|
[M:4/2] B,,2 C,2 D,2 E,2 F,4 G,4 x2 | D,8 G,,8 x2 | z4 G,,4 D,4 D,4 | C,4 C,4 B,,2 C,2 D,2 E,2 | %9
w: dres- * * * * *|* se.|Ne vueil- les|au be- soin * * *|
 F,4 C,4 D,8 x2 | A,,8 z4 D,4 x2 | _E,4 D,4 C,8 x4 | B,,2 C,2 D,2 E,2 F,8 | C,4 D,4 G,8 x4 | %14
w: * te tai-|re, Au-|tre- ment ie|ne * * * *|* sçai fai-|
 F,8 B,,8 x4 | z8 z4 G,4- | G,4 C,4 _E,4 B,,4 | F,4 F,4 G,8 | D,8 z8 | G,,8 D,4 G,,4 x4 | %20
w: * re|Si-|* non à ceux|me com- pa-|rer|Qu'on veut au|
 D,4 E,4 D,4 D,4 x12 | G,,16 |] %22
w: se- pul- chre~en- ter-|rer.|

